X:1
T:List the Music Pealing
T:List the Music Pealing
T:Hubert Platt Main, 1882
T:Mary Mathews Barnes
T:Public Domain Courtesy of the Cyber Hymnal™
T:Public Domain Courtesy of the Cyber Hymnal™
C:Hubert Platt Main, 1882
Z:Public Domain
Z:Courtesy of the Cyber Hymnal™
%%score ( 1 2 ) ( 3 4 )
L:1/8
Q:1/4=110
M:4/4
K:F
V:1 treble 
V:2 treble 
V:3 bass 
V:4 bass 
V:1
 [CF]3 [CF] [CE]2 [CF]2 | [EG]4 [FA]4 | [GB]3 [Gc] [GB]2 [FA]2 | [EG]8 | [FA]3 [EG] [FA]2 [FB]2 | %5
w: 1.~List the mu- sic|peal- ing;|hear our song of|might;|We are march- ing|
w: 2.~Gra- cious is our|Sav- ior,|to His child- ren|true;|And what- e’er the|
w: 3.~When our march is|end- ed,|and the night draws|near,|Bright- ly through the|
 [Fc]4 F4 | [FB]3 [FA] [DG]2 [DF]2 | [CE]8 | [CF]3 [CF] [CE]2 [CF]2 | [EG]4 [FA]4 | %10
w: on- ward|to the land of|light;|Come and join the|ban- ner,|
w: dan- ger,|He will lead us|through;|“Love ye one an-|o- ther,”|
w: dark- ness|will His face ap-|pear;|Join us, all ye|peo- ple,|
 [GB]3 [Gc] [FA]2 [FB]2 | [EG]8 | [FA]3 [FB] [Fc]2 [Fd]2 | [Fc]2 E2 [DF]2 [GB]2 | [FA]4 [EG]4 | %15
w: un- der which we|go,|Christ the Lord is|cap- tain, and we|fear no|
w: is our Lord’s com-|mand;|“Char- i- ty” the|mot- to of our|pil- grim|
w: hear our lov- ing|call,|In our faith- ful|ar- my there is|room for|
 F8 ||"^Refrain" [Fc]3 [Fc] [Gc]2 [Gc]2 | [Ff]4 [FA]4 | [FG]3 [FG] [FB]2 [EB]2 | [FA]8 | %20
w: foe.|||||
w: band.|Du- ty is our|watch- word,|faith our on- ly|shield,|
w: all.|||||
 [Gc]3 G [FA]2 [F=B]2 | [Ec]4 [CE]4 | [DG]3 [DF] [CE]2 [=B,D]2 |!>(! C8!>)! | %24
w: ||||
w: And to Sa- tan’s|le- gions|ne- ver will we|yield.|
w: ||||
 [CF]3 [CF] [CF]2 [FA]2 | [EG]4 F4 | [FB]3 [FA] [DG]2 [DF]2 | [CE]8 | [Ec]3 [Ec] [Fc]2 [GB]2 | %29
w: |||||
w: List the mu- sic|peal- ing,|hear our song of|might;|We are march- ing|
w: |||||
 [FA]2 [EG]2 F2 [FB]2 | [FA]4 [EG]4 | F8 |] %32
w: |||
w: on- ward to the|land of|light.|
w: |||
V:2
 x8 | x8 | x8 | x8 | x8 | x4 F4 | x8 | x8 | x8 | x8 | x8 | x8 | x8 | x2 E2 x4 | x8 | F8 || x8 | %17
 x8 | x8 | x8 | x3 G x4 | x8 | x8 | C8 | x8 | x4 F4 | x8 | x8 | x8 | x4 F2 x2 | x8 | F8 |] %32
V:3
 [F,A,]3 [F,A,] [G,B,]2 [F,A,]2 | [C,C]4 [F,C]4 | [E,C]3 [E,C] [F,C]2 [F,C]2 | [C,C]8 | %4
 [F,C]3 [C,C] [F,C]2 [F,G,]2 | [F,A,]4 [A,,C]4 | [G,,D]3 [A,,C] [B,,B,]2 [=B,,G,]2 | [C,G,]8 | %8
 [F,A,]3 [F,A,] [G,B,]2 [F,A,]2 | [C,C]4 [F,C]4 | [E,C]3 [E,C] [F,C]2 [B,,D]2 | [C,C]8 | %12
 [F,C]3 [F,G,] [F,A,]2 [B,,B,]2 | [A,,C]2 [C,B,]2 [D,A,]2 [B,,D]2 | [C,C]4 [C,B,]4 | [F,,A,]8 || %16
 [F,A,]3 [F,A,] [E,C]2 [E,G,]2 | [D,A,]4 [D,D]4 | [B,,D]3 [B,,D] [C,C]2 [C,C]2 | [F,A,]8 | %20
 [E,C]3 [E,C] [F,C]2 [D,G,]2 | [C,G,]4 [C,G,]4 | [F,A,]3 [F,A,] G,2 [G,,F,]2 | %23
!>(! [C,E,]4 [E,B,]4!>)! | [F,A,]3 [C,A,] [A,,C]2 [F,,C]2 | [C,B,]4 [D,A,]4 | %26
 [G,,D]3 [A,,C] [B,,B,]2 [=B,,G,]2 | [C,G,]8 | [C,G,]3 [C,G,] [D,C]2 [E,C]2 | %29
 [F,C]2 [C,B,]2 [D,A,]2 [G,,D]2 | [C,C]4 [C,B,]4 | [F,,A,]8 |] %32
V:4
 x8 | x8 | x8 | x8 | x8 | x8 | x8 | x8 | x8 | x8 | x8 | x8 | x8 | x8 | x8 | x8 || x8 | x8 | x8 | %19
 x8 | x8 | x8 | x4 G,2 x2 | x8 | x8 | x8 | x8 | x8 | x8 | x8 | x8 | x8 |] %32

